icons/src/graduationcap.svg

<!--Generator: Apple Native CoreSVG 341-->
<!DOCTYPE svg  PUBLIC '-//W3C//DTD SVG 1.1//EN'  'http://www.w3.org/Graphics/SVG/1.1/DTD/svg11.dtd'>
<svg version="1.1" viewBox="0 0 26.914 28.291" xmlns="http://www.w3.org/2000/svg">
 <rect width="26.914" height="28.291" opacity="0"/>
 <path d="m13.272 17.5c0.8398 0.0098 1.6699-0.2051 2.7051-0.6738l9.6191-4.3946c0.6348-0.2929 0.957-0.8593 0.957-1.4453 0-0.5761-0.3222-1.1426-0.957-1.4355l-9.6191-4.3945c-1.0352-0.46875-1.8653-0.68359-2.7051-0.67383-0.8301-0.00976-1.6602 0.20508-2.7051 0.67383l-9.6094 4.3945c-0.63476 0.29297-0.95703 0.85942-0.95703 1.4355 0 0.586 0.32227 1.1524 0.95703 1.4453l9.6094 4.3946c1.0449 0.4687 1.875 0.6836 2.7051 0.6738zm0-1.543c-0.6445 0-1.2793-0.166-2.1094-0.5468l-8.9941-4.0918c-0.17578-0.0782-0.25391-0.1954-0.25391-0.3321 0-0.1269 0.07813-0.2441 0.25391-0.3222l8.9941-4.0918c0.8301-0.38086 1.4649-0.54688 2.1094-0.54688 0.6543 0 1.2793 0.16602 2.1191 0.54688l8.9942 4.0918c0.166 0.0781 0.2539 0.1953 0.2539 0.3222 0 0.1367-0.0879 0.2539-0.2539 0.3321l-8.9942 4.0918c-0.8398 0.3808-1.4648 0.5468-2.1191 0.5468zm-9.4629 2.3731c0 2.9199 3.7109 5.3906 9.4629 5.3906 5.7617 0 9.4726-2.4707 9.4726-5.3906v-5.1563h-1.5722v5.1563c0 2.041-3.086 3.916-7.9004 3.916-4.8047 0-7.8906-1.875-7.8906-3.916v-5.1563h-1.5723zm9.5019-6.2305c1.0547 0 2.0704-0.4785 2.0704-1.1133 0-0.6152-1.0157-1.084-2.0704-1.084-1.0449 0-2.08 0.46876-2.08 1.084 0 0.6348 1.0351 1.1133 2.08 1.1133zm-5.9374 2.5781 5.791-3.0664-0.5371-1.0058-6.5235 3.3984zm-1.2695 9.5801h1.2695v-9.5801l-1.2695-0.625zm-0.77149 0.1953v2.5684c0 0.7715 0.49805 1.2695 1.2695 1.2695h0.26367c0.77149 0 1.2695-0.498 1.2695-1.2695v-2.5684c0-0.7715-0.49805-1.2695-1.2695-1.2695h-0.26367c-0.77148 0-1.2695 0.498-1.2695 1.2695z" fill="#fff"/>
</svg>

<?xml version="1.0" encoding="UTF-8"?>
<!--Generator: Apple Native CoreSVG 341-->
<!DOCTYPE svg
PUBLIC "-//W3C//DTD SVG 1.1//EN"
       "http://www.w3.org/Graphics/SVG/1.1/DTD/svg11.dtd">
<svg version="1.1" xmlns="http://www.w3.org/2000/svg" xmlns:xlink="http://www.w3.org/1999/xlink" viewBox="0 0 26.9141 28.291">
 <g>
  <rect height="28.291" opacity="0" width="26.9141" x="0" y="0"/>
  <path d="M13.2715 17.5C14.1113 17.5098 14.9414 17.2949 15.9766 16.8262L25.5957 12.4316C26.2305 12.1387 26.5527 11.5723 26.5527 10.9863C26.5527 10.4102 26.2305 9.84375 25.5957 9.55078L15.9766 5.15625C14.9414 4.6875 14.1113 4.47266 13.2715 4.48242C12.4414 4.47266 11.6113 4.6875 10.5664 5.15625L0.957031 9.55078C0.322266 9.84375 0 10.4102 0 10.9863C0 11.5723 0.322266 12.1387 0.957031 12.4316L10.5664 16.8262C11.6113 17.2949 12.4414 17.5098 13.2715 17.5ZM13.2715 15.957C12.627 15.957 11.9922 15.791 11.1621 15.4102L2.16797 11.3184C1.99219 11.2402 1.91406 11.123 1.91406 10.9863C1.91406 10.8594 1.99219 10.7422 2.16797 10.6641L11.1621 6.57227C11.9922 6.19141 12.627 6.02539 13.2715 6.02539C13.9258 6.02539 14.5508 6.19141 15.3906 6.57227L24.3848 10.6641C24.5508 10.7422 24.6387 10.8594 24.6387 10.9863C24.6387 11.123 24.5508 11.2402 24.3848 11.3184L15.3906 15.4102C14.5508 15.791 13.9258 15.957 13.2715 15.957ZM3.80859 18.3301C3.80859 21.25 7.51953 23.7207 13.2715 23.7207C19.0332 23.7207 22.7441 21.25 22.7441 18.3301L22.7441 13.1738L21.1719 13.1738L21.1719 18.3301C21.1719 20.3711 18.0859 22.2461 13.2715 22.2461C8.4668 22.2461 5.38086 20.3711 5.38086 18.3301L5.38086 13.1738L3.80859 13.1738ZM13.3105 12.0996C14.3652 12.0996 15.3809 11.6211 15.3809 10.9863C15.3809 10.3711 14.3652 9.90234 13.3105 9.90234C12.2656 9.90234 11.2305 10.3711 11.2305 10.9863C11.2305 11.6211 12.2656 12.0996 13.3105 12.0996ZM7.37305 14.6777L13.1641 11.6113L12.627 10.6055L6.10352 14.0039ZM6.10352 24.2578L7.37305 24.2578L7.37305 14.6777L6.10352 14.0527ZM5.33203 24.4531L5.33203 27.0215C5.33203 27.793 5.83008 28.291 6.60156 28.291L6.86523 28.291C7.63672 28.291 8.13477 27.793 8.13477 27.0215L8.13477 24.4531C8.13477 23.6816 7.63672 23.1836 6.86523 23.1836L6.60156 23.1836C5.83008 23.1836 5.33203 23.6816 5.33203 24.4531Z" fill="white"/>
 </g>
</svg>
